app/assets/images/icons/active/breakfast.svg

<?xml version="1.0" encoding="UTF-8" standalone="no"?>
<svg width="32px" height="232px" viewBox="0 0 32 232" version="1.1" xmlns="http://www.w3.org/2000/svg" xmlns:xlink="http://www.w3.org/1999/xlink" xmlns:sketch="http://www.bohemiancoding.com/sketch/ns">
    <title>breakfast</title>
    <description>Created with Sketch (http://www.bohemiancoding.com/sketch)</description>
    <defs></defs>
    <g id="Hotel-facilities" stroke="none" stroke-width="1" fill="none" fill-rule="evenodd" sketch:type="MSPage">
        <path d="M22.684,149.00003 C23.459,149.00003 24.092,148.36903 24.092,147.59203 C24.092,146.80903 23.459,146.17803 22.684,146.17803 L6.27,146.17803 C5.489,146.17803 4.858,146.80903 4.858,147.59203 C4.858,148.36903 5.489,149.00003 6.27,149.00003 L22.684,149.00003 Z M17.051,123.13403 C16.344,123.97803 15.846,125.25503 16.323,126.32103 C16.737,127.25003 17.858,127.66103 17.655,128.82203 C17.561,129.37103 17.204,129.72203 16.989,130.20303 C16.782,130.66803 17.467,131.07403 17.676,130.60403 C17.856,130.20503 18.143,129.86103 18.307,129.44203 C18.576,128.75903 18.526,128.02603 18.188,127.38303 C17.985,126.99803 17.614,126.74203 17.319,126.43503 C16.961,126.06203 16.883,125.52303 16.971,125.03303 C17.057,124.56703 17.342,124.02503 17.614,123.69703 C17.944,123.30503 17.383,122.73903 17.051,123.13403 Z M13.487,123.13403 C12.782,123.97803 12.284,125.25503 12.76,126.32103 C13.174,127.25003 14.293,127.66103 14.094,128.82203 C13.998,129.37103 13.639,129.72203 13.424,130.20303 C13.217,130.66803 13.905,131.07403 14.114,130.60403 C14.293,130.20503 14.579,129.86103 14.744,129.44203 C15.014,128.75903 14.963,128.02603 14.623,127.38303 C14.42,126.99803 14.049,126.74203 13.756,126.43503 C13.399,126.06203 13.321,125.52303 13.409,125.03303 C13.493,124.56703 13.778,124.02503 14.051,123.69703 C14.379,123.30503 13.819,122.73903 13.487,123.13403 Z M9.897,123.13403 C9.19,123.97803 8.692,125.25503 9.166,126.32103 C9.58,127.25003 10.701,127.66103 10.5,128.82203 C10.405,129.37103 10.047,129.72203 9.832,130.20303 C9.625,130.66803 10.313,131.07403 10.522,130.60403 C10.701,130.20503 10.987,129.86103 11.153,129.44203 C11.42,128.75903 11.369,128.02603 11.03,127.38303 C10.829,126.99803 10.457,126.74203 10.164,126.43503 C9.805,126.06203 9.729,125.52303 9.817,125.03303 C9.901,124.56703 10.184,124.02503 10.459,123.69703 C10.788,123.30503 10.225,122.73903 9.897,123.13403 Z M25.446,134.48103 C25.219,134.48103 25,134.50503 24.782,134.54703 C24.795,134.41703 24.797,134.28703 24.797,134.17903 L24.797,134.06103 C24.797,133.50803 24.344,133.05303 23.791,133.05303 L4.01,133.05303 C3.452,133.05303 3,133.50803 3,134.06103 L3,134.17903 C3,134.73503 3.094,135.63203 3.21,136.17203 L7.012,143.84303 C7.383,144.25803 8.141,144.59703 8.692,144.59703 L19.104,144.59703 C19.657,144.59703 20.409,144.25803 20.784,143.84303 L22.618,140.14903 C23.264,141.01403 24.286,141.58003 25.446,141.58003 C27.405,141.58003 28.998,139.98603 28.998,138.02803 C28.998,136.07103 27.405,134.48103 25.446,134.48103 Z M25.446,140.04203 C24.33,140.04203 23.422,139.13503 23.422,138.01903 C23.422,136.90403 24.33,135.99303 25.446,135.99303 C26.565,135.99303 27.471,136.90403 27.471,138.01903 C27.471,139.13503 26.565,140.04203 25.446,140.04203 Z M25.446,140.04203" id="breakfast--white" fill="#206FAC" sketch:type="MSShapeGroup"></path>
        <path d="M22.684,109.00003 C23.459,109.00003 24.092,108.36903 24.092,107.59203 C24.092,106.80903 23.459,106.17803 22.684,106.17803 L6.27,106.17803 C5.489,106.17803 4.858,106.80903 4.858,107.59203 C4.858,108.36903 5.489,109.00003 6.27,109.00003 L22.684,109.00003 Z M17.051,83.1340303 C16.344,83.9780303 15.846,85.2550303 16.323,86.3210303 C16.737,87.2500303 17.858,87.6610303 17.655,88.8220303 C17.561,89.3710303 17.204,89.7220303 16.989,90.2030303 C16.782,90.6680303 17.467,91.0740303 17.676,90.6040303 C17.856,90.2050303 18.143,89.8610303 18.307,89.4420303 C18.576,88.7590303 18.526,88.0260303 18.188,87.3830303 C17.985,86.9980303 17.614,86.7420303 17.319,86.4350303 C16.961,86.0620303 16.883,85.5230303 16.971,85.0330303 C17.057,84.5670303 17.342,84.0250303 17.614,83.6970303 C17.944,83.3050303 17.383,82.7390303 17.051,83.1340303 Z M13.487,83.1340303 C12.782,83.9780303 12.284,85.2550303 12.76,86.3210303 C13.174,87.2500303 14.293,87.6610303 14.094,88.8220303 C13.998,89.3710303 13.639,89.7220303 13.424,90.2030303 C13.217,90.6680303 13.905,91.0740303 14.114,90.6040303 C14.293,90.2050303 14.579,89.8610303 14.744,89.4420303 C15.014,88.7590303 14.963,88.0260303 14.623,87.3830303 C14.42,86.9980303 14.049,86.7420303 13.756,86.4350303 C13.399,86.0620303 13.321,85.5230303 13.409,85.0330303 C13.493,84.5670303 13.778,84.0250303 14.051,83.6970303 C14.379,83.3050303 13.819,82.7390303 13.487,83.1340303 Z M9.897,83.1340303 C9.19,83.9780303 8.692,85.2550303 9.166,86.3210303 C9.58,87.2500303 10.701,87.6610303 10.5,88.8220303 C10.405,89.3710303 10.047,89.7220303 9.832,90.2030303 C9.625,90.6680303 10.313,91.0740303 10.522,90.6040303 C10.701,90.2050303 10.987,89.8610303 11.153,89.4420303 C11.42,88.7590303 11.369,88.0260303 11.03,87.3830303 C10.829,86.9980303 10.457,86.7420303 10.164,86.4350303 C9.805,86.0620303 9.729,85.5230303 9.817,85.0330303 C9.901,84.5670303 10.184,84.0250303 10.459,83.6970303 C10.788,83.3050303 10.225,82.7390303 9.897,83.1340303 Z M25.446,94.4810303 C25.219,94.4810303 25,94.5050303 24.782,94.5470303 C24.795,94.4170303 24.797,94.2870303 24.797,94.1790303 L24.797,94.0610303 C24.797,93.5080303 24.344,93.0530303 23.791,93.0530303 L4.01,93.0530303 C3.452,93.0530303 3,93.5080303 3,94.0610303 L3,94.1790303 C3,94.7350303 3.094,95.6320303 3.21,96.1720303 L7.012,103.84303 C7.383,104.25803 8.141,104.59703 8.692,104.59703 L19.104,104.59703 C19.657,104.59703 20.409,104.25803 20.784,103.84303 L22.618,100.14903 C23.264,101.01403 24.286,101.58003 25.446,101.58003 C27.405,101.58003 28.998,99.9860303 28.998,98.0280303 C28.998,96.0710303 27.405,94.4810303 25.446,94.4810303 Z M25.446,100.04203 C24.33,100.04203 23.422,99.1350303 23.422,98.0190303 C23.422,96.9040303 24.33,95.9930303 25.446,95.9930303 C26.565,95.9930303 27.471,96.9040303 27.471,98.0190303 C27.471,99.1350303 26.565,100.04203 25.446,100.04203 Z M25.446,100.04203" id="breakfast--white" fill="#FFFFFF" sketch:type="MSShapeGroup"></path>
        <path d="M22.684,69.0000303 C23.459,69.0000303 24.092,68.3690303 24.092,67.5920303 C24.092,66.8090303 23.459,66.1780303 22.684,66.1780303 L6.27,66.1780303 C5.489,66.1780303 4.858,66.8090303 4.858,67.5920303 C4.858,68.3690303 5.489,69.0000303 6.27,69.0000303 L22.684,69.0000303 Z M17.051,43.1340303 C16.344,43.9780303 15.846,45.2550303 16.323,46.3210303 C16.737,47.2500303 17.858,47.6610303 17.655,48.8220303 C17.561,49.3710303 17.204,49.7220303 16.989,50.2030303 C16.782,50.6680303 17.467,51.0740303 17.676,50.6040303 C17.856,50.2050303 18.143,49.8610303 18.307,49.4420303 C18.576,48.7590303 18.526,48.0260303 18.188,47.3830303 C17.985,46.9980303 17.614,46.7420303 17.319,46.4350303 C16.961,46.0620303 16.883,45.5230303 16.971,45.0330303 C17.057,44.5670303 17.342,44.0250303 17.614,43.6970303 C17.944,43.3050303 17.383,42.7390303 17.051,43.1340303 Z M13.487,43.1340303 C12.782,43.9780303 12.284,45.2550303 12.76,46.3210303 C13.174,47.2500303 14.293,47.6610303 14.094,48.8220303 C13.998,49.3710303 13.639,49.7220303 13.424,50.2030303 C13.217,50.6680303 13.905,51.0740303 14.114,50.6040303 C14.293,50.2050303 14.579,49.8610303 14.744,49.4420303 C15.014,48.7590303 14.963,48.0260303 14.623,47.3830303 C14.42,46.9980303 14.049,46.7420303 13.756,46.4350303 C13.399,46.0620303 13.321,45.5230303 13.409,45.0330303 C13.493,44.5670303 13.778,44.0250303 14.051,43.6970303 C14.379,43.3050303 13.819,42.7390303 13.487,43.1340303 Z M9.897,43.1340303 C9.19,43.9780303 8.692,45.2550303 9.166,46.3210303 C9.58,47.2500303 10.701,47.6610303 10.5,48.8220303 C10.405,49.3710303 10.047,49.7220303 9.832,50.2030303 C9.625,50.6680303 10.313,51.0740303 10.522,50.6040303 C10.701,50.2050303 10.987,49.8610303 11.153,49.4420303 C11.42,48.7590303 11.369,48.0260303 11.03,47.3830303 C10.829,46.9980303 10.457,46.7420303 10.164,46.4350303 C9.805,46.0620303 9.729,45.5230303 9.817,45.0330303 C9.901,44.5670303 10.184,44.0250303 10.459,43.6970303 C10.788,43.3050303 10.225,42.7390303 9.897,43.1340303 Z M25.446,54.4810303 C25.219,54.4810303 25,54.5050303 24.782,54.5470303 C24.795,54.4170303 24.797,54.2870303 24.797,54.1790303 L24.797,54.0610303 C24.797,53.5080303 24.344,53.0530303 23.791,53.0530303 L4.01,53.0530303 C3.452,53.0530303 3,53.5080303 3,54.0610303 L3,54.1790303 C3,54.7350303 3.094,55.6320303 3.21,56.1720303 L7.012,63.8430303 C7.383,64.2580303 8.141,64.5970303 8.692,64.5970303 L19.104,64.5970303 C19.657,64.5970303 20.409,64.2580303 20.784,63.8430303 L22.618,60.1490303 C23.264,61.0140303 24.286,61.5800303 25.446,61.5800303 C27.405,61.5800303 28.998,59.9860303 28.998,58.0280303 C28.998,56.0710303 27.405,54.4810303 25.446,54.4810303 Z M25.446,60.0420303 C24.33,60.0420303 23.422,59.1350303 23.422,58.0190303 C23.422,56.9040303 24.33,55.9930303 25.446,55.9930303 C26.565,55.9930303 27.471,56.9040303 27.471,58.0190303 C27.471,59.1350303 26.565,60.0420303 25.446,60.0420303 Z M25.446,60.0420303" id="breakfast--light-grey" fill="#67737B" sketch:type="MSShapeGroup"></path>
        <path d="M22.684,29.0000303 C23.459,29.0000303 24.092,28.3690303 24.092,27.5920303 C24.092,26.8090303 23.459,26.1780303 22.684,26.1780303 L6.27,26.1780303 C5.489,26.1780303 4.858,26.8090303 4.858,27.5920303 C4.858,28.3690303 5.489,29.0000303 6.27,29.0000303 L22.684,29.0000303 Z M17.051,3.13403033 C16.344,3.97803033 15.846,5.25503033 16.323,6.32103033 C16.737,7.25003033 17.858,7.66103033 17.655,8.82203033 C17.561,9.37103033 17.204,9.72203033 16.989,10.2030303 C16.782,10.6680303 17.467,11.0740303 17.676,10.6040303 C17.856,10.2050303 18.143,9.86103033 18.307,9.44203033 C18.576,8.75903033 18.526,8.02603033 18.188,7.38303033 C17.985,6.99803033 17.614,6.74203033 17.319,6.43503033 C16.961,6.06203033 16.883,5.52303033 16.971,5.03303033 C17.057,4.56703033 17.342,4.02503033 17.614,3.69703033 C17.944,3.30503033 17.383,2.73903033 17.051,3.13403033 Z M13.487,3.13403033 C12.782,3.97803033 12.284,5.25503033 12.76,6.32103033 C13.174,7.25003033 14.293,7.66103033 14.094,8.82203033 C13.998,9.37103033 13.639,9.72203033 13.424,10.2030303 C13.217,10.6680303 13.905,11.0740303 14.114,10.6040303 C14.293,10.2050303 14.579,9.86103033 14.744,9.44203033 C15.014,8.75903033 14.963,8.02603033 14.623,7.38303033 C14.42,6.99803033 14.049,6.74203033 13.756,6.43503033 C13.399,6.06203033 13.321,5.52303033 13.409,5.03303033 C13.493,4.56703033 13.778,4.02503033 14.051,3.69703033 C14.379,3.30503033 13.819,2.73903033 13.487,3.13403033 Z M9.897,3.13403033 C9.19,3.97803033 8.692,5.25503033 9.166,6.32103033 C9.58,7.25003033 10.701,7.66103033 10.5,8.82203033 C10.405,9.37103033 10.047,9.72203033 9.832,10.2030303 C9.625,10.6680303 10.313,11.0740303 10.522,10.6040303 C10.701,10.2050303 10.987,9.86103033 11.153,9.44203033 C11.42,8.75903033 11.369,8.02603033 11.03,7.38303033 C10.829,6.99803033 10.457,6.74203033 10.164,6.43503033 C9.805,6.06203033 9.729,5.52303033 9.817,5.03303033 C9.901,4.56703033 10.184,4.02503033 10.459,3.69703033 C10.788,3.30503033 10.225,2.73903033 9.897,3.13403033 Z M25.446,14.4810303 C25.219,14.4810303 25,14.5050303 24.782,14.5470303 C24.795,14.4170303 24.797,14.2870303 24.797,14.1790303 L24.797,14.0610303 C24.797,13.5080303 24.344,13.0530303 23.791,13.0530303 L4.01,13.0530303 C3.452,13.0530303 3,13.5080303 3,14.0610303 L3,14.1790303 C3,14.7350303 3.094,15.6320303 3.21,16.1720303 L7.012,23.8430303 C7.383,24.2580303 8.141,24.5970303 8.692,24.5970303 L19.104,24.5970303 C19.657,24.5970303 20.409,24.2580303 20.784,23.8430303 L22.618,20.1490303 C23.264,21.0140303 24.286,21.5800303 25.446,21.5800303 C27.405,21.5800303 28.998,19.9860303 28.998,18.0280303 C28.998,16.0710303 27.405,14.4810303 25.446,14.4810303 Z M25.446,20.0420303 C24.33,20.0420303 23.422,19.1350303 23.422,18.0190303 C23.422,16.9040303 24.33,15.9930303 25.446,15.9930303 C26.565,15.9930303 27.471,16.9040303 27.471,18.0190303 C27.471,19.1350303 26.565,20.0420303 25.446,20.0420303 Z M25.446,20.0420303" id="breakfast--dark-grey" fill="#3A434E" sketch:type="MSShapeGroup"></path>
    </g>
</svg>

<svg width="32" height="232" viewBox="0 0 32 232" xmlns="http://www.w3.org/2000/svg" xmlns:sketch="http://www.bohemiancoding.com/sketch/ns"><title>breakfast</title><g sketch:type="MSPage" fill="none"><path d="M22.684 149c.775 0 1.408-.631 1.408-1.408 0-.783-.633-1.414-1.408-1.414h-16.414c-.781 0-1.412.631-1.412 1.414 0 .777.631 1.408 1.412 1.408h16.414zm-5.633-25.866c-.707.844-1.205 2.121-.728 3.187.414.929 1.535 1.34 1.332 2.501-.094.549-.451.9-.666 1.381-.207.465.478.871.687.401.18-.399.467-.743.631-1.162.269-.683.219-1.416-.119-2.059-.203-.385-.574-.641-.869-.948-.358-.373-.436-.912-.348-1.402.086-.466.371-1.008.643-1.336.33-.392-.231-.958-.563-.563zm-3.564 0c-.705.844-1.203 2.121-.727 3.187.414.929 1.533 1.34 1.334 2.501-.096.549-.455.9-.67 1.381-.207.465.481.871.69.401.179-.399.465-.743.63-1.162.27-.683.219-1.416-.121-2.059-.203-.385-.574-.641-.867-.948-.357-.373-.435-.912-.347-1.402.084-.466.369-1.008.642-1.336.328-.392-.232-.958-.564-.563zm-3.59 0c-.707.844-1.205 2.121-.731 3.187.414.929 1.535 1.34 1.334 2.501-.095.549-.453.9-.668 1.381-.207.465.481.871.69.401.179-.399.465-.743.631-1.162.267-.683.216-1.416-.123-2.059-.201-.385-.573-.641-.866-.948-.359-.373-.435-.912-.347-1.402.084-.466.367-1.008.642-1.336.329-.392-.234-.958-.562-.563zm15.549 11.347c-.227 0-.446.024-.664.066l.015-.368v-.118c0-.553-.453-1.008-1.006-1.008h-19.781c-.558 0-1.01.455-1.01 1.008v.118c0 .556.094 1.453.21 1.993l3.802 7.671c.371.415 1.129.754 1.68.754h10.412c.553 0 1.305-.339 1.68-.754l1.834-3.694c.646.865 1.668 1.431 2.828 1.431 1.959 0 3.552-1.594 3.552-3.552 0-1.957-1.593-3.547-3.552-3.547zm0 5.561c-1.116 0-2.024-.907-2.024-2.023 0-1.115.908-2.026 2.024-2.026 1.119 0 2.025.911 2.025 2.026 0 1.116-.906 2.023-2.025 2.023zm0 0" id="breakfast--white" fill="#206FAC" sketch:type="MSShapeGroup"/><path d="M22.684 109c.775 0 1.408-.631 1.408-1.408 0-.783-.633-1.414-1.408-1.414h-16.414c-.781 0-1.412.631-1.412 1.414 0 .777.631 1.408 1.412 1.408h16.414zm-5.633-25.866c-.707.844-1.205 2.121-.728 3.187.414.929 1.535 1.34 1.332 2.501-.094.549-.451.9-.666 1.381-.207.465.478.871.687.401.18-.399.467-.743.631-1.162.269-.683.219-1.416-.119-2.059-.203-.385-.574-.641-.869-.948-.358-.373-.436-.912-.348-1.402.086-.466.371-1.008.643-1.336.33-.392-.231-.958-.563-.563zm-3.564 0c-.705.844-1.203 2.121-.727 3.187.414.929 1.533 1.34 1.334 2.501-.096.549-.455.9-.67 1.381-.207.465.481.871.69.401.179-.399.465-.743.63-1.162.27-.683.219-1.416-.121-2.059-.203-.385-.574-.641-.867-.948-.357-.373-.435-.912-.347-1.402.084-.466.369-1.008.642-1.336.328-.392-.232-.958-.564-.563zm-3.59 0c-.707.844-1.205 2.121-.731 3.187.414.929 1.535 1.34 1.334 2.501-.095.549-.453.9-.668 1.381-.207.465.481.871.69.401.179-.399.465-.743.631-1.162.267-.683.216-1.416-.123-2.059-.201-.385-.573-.641-.866-.948-.359-.373-.435-.912-.347-1.402.084-.466.367-1.008.642-1.336.329-.392-.234-.958-.562-.563zm15.549 11.347c-.227 0-.446.024-.664.066l.015-.368v-.118c0-.553-.453-1.008-1.006-1.008h-19.781c-.558 0-1.01.455-1.01 1.008v.118c0 .556.094 1.453.21 1.993l3.802 7.671c.371.415 1.129.754 1.68.754h10.412c.553 0 1.305-.339 1.68-.754l1.834-3.694c.646.865 1.668 1.431 2.828 1.431 1.959 0 3.552-1.594 3.552-3.552 0-1.957-1.593-3.547-3.552-3.547zm0 5.561c-1.116 0-2.024-.907-2.024-2.023 0-1.115.908-2.026 2.024-2.026 1.119 0 2.025.911 2.025 2.026 0 1.116-.906 2.023-2.025 2.023zm0 0" fill="#fff" sketch:type="MSShapeGroup"/><path d="M22.684 69c.775 0 1.408-.631 1.408-1.408 0-.783-.633-1.414-1.408-1.414h-16.414c-.781 0-1.412.631-1.412 1.414 0 .777.631 1.408 1.412 1.408h16.414zm-5.633-25.866c-.707.844-1.205 2.121-.728 3.187.414.929 1.535 1.34 1.332 2.501-.094.549-.451.9-.666 1.381-.207.465.478.871.687.401.18-.399.467-.743.631-1.162.269-.683.219-1.416-.119-2.059-.203-.385-.574-.641-.869-.948-.358-.373-.436-.912-.348-1.402.086-.466.371-1.008.643-1.336.33-.392-.231-.958-.563-.563zm-3.564 0c-.705.844-1.203 2.121-.727 3.187.414.929 1.533 1.34 1.334 2.501-.096.549-.455.9-.67 1.381-.207.465.481.871.69.401.179-.399.465-.743.63-1.162.27-.683.219-1.416-.121-2.059-.203-.385-.574-.641-.867-.948-.357-.373-.435-.912-.347-1.402.084-.466.369-1.008.642-1.336.328-.392-.232-.958-.564-.563zm-3.59 0c-.707.844-1.205 2.121-.731 3.187.414.929 1.535 1.34 1.334 2.501-.095.549-.453.9-.668 1.381-.207.465.481.871.69.401.179-.399.465-.743.631-1.162.267-.683.216-1.416-.123-2.059-.201-.385-.573-.641-.866-.948-.359-.373-.435-.912-.347-1.402.084-.466.367-1.008.642-1.336.329-.392-.234-.958-.562-.563zm15.549 11.347c-.227 0-.446.024-.664.066l.015-.368v-.118c0-.553-.453-1.008-1.006-1.008h-19.781c-.558 0-1.01.455-1.01 1.008v.118c0 .556.094 1.453.21 1.993l3.802 7.671c.371.415 1.129.754 1.68.754h10.412c.553 0 1.305-.339 1.68-.754l1.834-3.694c.646.865 1.668 1.431 2.828 1.431 1.959 0 3.552-1.594 3.552-3.552 0-1.957-1.593-3.547-3.552-3.547zm0 5.561c-1.116 0-2.024-.907-2.024-2.023 0-1.115.908-2.026 2.024-2.026 1.119 0 2.025.911 2.025 2.026 0 1.116-.906 2.023-2.025 2.023zm0 0" fill="#67737B" sketch:type="MSShapeGroup"/><path d="M22.684 29c.775 0 1.408-.631 1.408-1.408 0-.783-.633-1.414-1.408-1.414h-16.414c-.781 0-1.412.631-1.412 1.414 0 .777.631 1.408 1.412 1.408h16.414zm-5.633-25.866c-.707.844-1.205 2.121-.728 3.187.414.929 1.535 1.34 1.332 2.501-.094.549-.451.9-.666 1.381-.207.465.478.871.687.401.18-.399.467-.743.631-1.162.269-.683.219-1.416-.119-2.059-.203-.385-.574-.641-.869-.948-.358-.373-.436-.912-.348-1.402.086-.466.371-1.008.643-1.336.33-.392-.231-.958-.563-.563zm-3.564 0c-.705.844-1.203 2.121-.727 3.187.414.929 1.533 1.34 1.334 2.501-.096.549-.455.9-.67 1.381-.207.465.481.871.69.401.179-.399.465-.743.63-1.162.27-.683.219-1.416-.121-2.059-.203-.385-.574-.641-.867-.948-.357-.373-.435-.912-.347-1.402.084-.466.369-1.008.642-1.336.328-.392-.232-.958-.564-.563zm-3.59 0c-.707.844-1.205 2.121-.731 3.187.414.929 1.535 1.34 1.334 2.501-.095.549-.453.9-.668 1.381-.207.465.481.871.69.401.179-.399.465-.743.631-1.162.267-.683.216-1.416-.123-2.059-.201-.385-.573-.641-.866-.948-.359-.373-.435-.912-.347-1.402.084-.466.367-1.008.642-1.336.329-.392-.234-.958-.562-.563zm15.549 11.347c-.227 0-.446.024-.664.066l.015-.368v-.118c0-.553-.453-1.008-1.006-1.008h-19.781c-.558 0-1.01.455-1.01 1.008v.118c0 .556.094 1.453.21 1.993l3.802 7.671c.371.415 1.129.754 1.68.754h10.412c.553 0 1.305-.339 1.68-.754l1.834-3.694c.646.865 1.668 1.431 2.828 1.431 1.959 0 3.552-1.594 3.552-3.552 0-1.957-1.593-3.547-3.552-3.547zm0 5.561c-1.116 0-2.024-.907-2.024-2.023 0-1.115.908-2.026 2.024-2.026 1.119 0 2.025.911 2.025 2.026 0 1.116-.906 2.023-2.025 2.023zm0 0" fill="#3A434E" sketch:type="MSShapeGroup"/></g></svg>
